X: 219
T: No_75_Baby_Alligator_Dance_Song_(b).krn
N: Derived from No_75_Baby_Alligator_Dance_Song_(b).krn
%%abc-version 2.0
%%abcx-abcm2ps-target-version 5.9.1 (29 Sep 2008)
%%abc-creator hum2abc beta
%%abcx-conversion-date 2019/03/15 08:38:45
%%humdrum-veritas 2953464367
%%humdrum-veritas-data 4233326292
%%linebreak <none>
%%barnumbers 0
L: 1/8
M: 2/4
K: G clef=bass
[K:clef=bass][M:2/4]D3/B,/ B, z | 
DB, D3/D/ ||  
[M:3/4](3(B,/A,)G,G,2z2 ||  
[M:2/4]G,3/G,/ B,3/D/ ||  
[M:3/4](3(B,/A,)G,G,2z3/ G,/ ||  
[M:2/4]G,3/D/ B,3/D/ ]|:  
[M:3/4](3B,A,B, G,E,-E,2 ||  
[M:2/4]E,3/E,/G,2 | 
G,G,/G,/ G,B, | 
B,(B,/A,/) A,G, | 
E,2z2 ||  
[M:3/4]z3/ G,/ G,3/D/ B,3/D/ | 
(3B,A,B, G,E,-E,2 ||  
[M:2/4]E,3/E,/G,2 | 
G,G,B,2 | 
A,G,E,2 | 
z3/ G,/ G,3/G,/ [I:setbarnb 18]| 
D3/D/ B,3/D/ :|]  
z4 | 
[M:3/8]B,/B,/B,A, ||  
[M:2/4]G,/G,/G, z E, ||  
[M:3/8]G,/G,/G,A, | 
G,/G,/G,A, | 
B,/B,/B,A, | 
G,/G,/G, z | 
z2E, | 
G,/G,/G,A, | 
G,/G,/G,C | 
B,/B,/B,A, ||  
[M:2/4]G,/G,/G, z A, ||  
[M:3/8]B,/B,/B,A, | 
G,/G,/G, z |]  



% FRACTION = 0.499634BUT SHOULD BE 0
